Origami/24x24/apps/rdm.svg

<svg width="24" height="24" version="1.1" viewBox="0 0 24 24" xmlns="http://www.w3.org/2000/svg">
 <path d="m12.000462 10.500003c-0.663295-1.21e-4 -1.326623 0.147688-1.817474 0.442197l-7.447165 4.467541c-0.9817028 0.589018-0.9807913 1.591937 9e-4 2.180956l7.44625 4.46754c0.981703 0.589018 2.653247 0.589017 3.634948 0l7.446268-4.46754c0.981701-0.589017 0.980777-1.59194-9.5e-4 -2.180956l-7.445304-4.467541c-0.490851-0.294509-1.154179-0.442077-1.817473-0.442197z" style="opacity:.2"/>
 <path d="m12.000462 10.000003c-0.663295-1.204e-4 -1.326623 0.147688-1.817474 0.442197l-7.447165 4.467541c-0.9817028 0.589018-0.9807913 1.591937 9e-4 2.180956l7.44625 4.46754c0.981703 0.589018 2.653247 0.589017 3.634948 0l7.446268-4.46754c0.981701-0.589017 0.980777-1.59194-9.5e-4 -2.180956l-7.445304-4.467541c-0.490851-0.294509-1.154179-0.442076-1.817473-0.442197z" style="fill:#af2d2c"/>
 <path d="m12.000462 6.5000039c-0.663295-1.205e-4 -1.326623 0.147688-1.817474 0.4421974l-7.4471648 4.4675407c-0.9817028 0.589018-0.9807913 1.591937 9e-4 2.180956l7.4462508 4.46754c0.981702 0.589017 2.653247 0.589017 3.634948 0l7.446268-4.46754c0.9817-0.589017 0.980776-1.59194-9.5e-4 -2.180956l-7.445305-4.4675407c-0.490851-0.2945094-1.154178-0.4420769-1.817473-0.4421974z" style="opacity:.2"/>
 <path d="m12.000462 6.000004c-0.663295-1.205e-4 -1.326623 0.147688-1.817474 0.4421974l-7.4471648 4.4675406c-0.9817028 0.589018-0.9807913 1.591937 9e-4 2.180956l7.4462508 4.46754c0.981702 0.589018 2.653247 0.589017 3.634948 0l7.446268-4.46754c0.9817-0.589017 0.980776-1.59194-9.5e-4 -2.180956l-7.445305-4.4675406c-0.490851-0.2945094-1.154178-0.4420769-1.817473-0.4421974z" style="fill:#da3837"/>
 <path d="m12.000462 2.500005c-0.663295-1.205e-4 -1.326623 0.1476879-1.817474 0.4421974l-7.447165 4.4675408c-0.9817028 0.5890178-0.9807913 1.5919366 9e-4 2.1809555l7.44625 4.4675403c0.981703 0.589017 2.653247 0.589017 3.634948 0l7.446268-4.4675403c0.981701-0.5890169 0.980777-1.5919397-9.5e-4 -2.1809555l-7.445304-4.4675408c-0.490851-0.2945095-1.154179-0.4420769-1.817473-0.4421974z" style="opacity:.2"/>
 <path d="m12.000462 2.000005c-0.663295-1.205e-4 -1.326623 0.147688-1.817474 0.4421974l-7.447165 4.4675409c-0.9817028 0.5890179-0.9807913 1.5919366 9e-4 2.1809555l7.44625 4.4675402c0.981703 0.589018 2.653247 0.589017 3.634948 0l7.446268-4.4675402c0.981701-0.5890169 0.980777-1.5919396-9.5e-4 -2.1809555l-7.445304-4.4675409c-0.490851-0.2945094-1.154179-0.4420769-1.817473-0.4421974z" style="fill:#e0504d"/>
 <path d="m12 2.000005c-0.663295-1.205e-4 -1.326532 0.1478732-1.817383 0.4423827l-7.4472632 4.4677721c-0.5942141 0.3565264-0.8216787 0.8636068-0.6962889 1.3398437 0.0814256-0.3105549 0.3088004-0.6073519 0.6962889-0.8398438l7.4472632-4.4677721c0.490851-0.2945095 1.154088-0.4425032 1.817383-0.4423827s1.327508 0.1478732 1.818359 0.4423827l7.445311 4.4677721c0.387498 0.2324909 0.615491 0.5292884 0.697265 0.8398438 0.124859-0.4762374-0.103037-0.9833183-0.697265-1.3398437l-7.445311-4.4677721c-0.490851-0.2945095-1.155064-0.4422622-1.818359-0.4423827z" style="fill:#ffffff;opacity:.2"/>
 <polygon transform="matrix(.01476006 0 0 .02167915 1.0507096 -.15500063)" points="759.89 376.17 715.19 301.86 572.44 289.03 678.96 250.62 647 191.66 746.72 230.66 840.74 199.88 815.33 260.85 911.2 296.75 787.57 309.58" style="opacity:.2"/>
 <polygon transform="matrix(.01476006 0 0 .02167915 1.0507096 -.65500063)" points="746.72 230.66 840.74 199.88 815.33 260.85 911.2 296.75 787.57 309.58 759.89 376.17 715.19 301.86 572.44 289.03 678.96 250.62 647 191.66" style="fill:#ffffff"/>
 <polygon transform="matrix(.01209877 0 0 .02048718 2.6870314 -.19811806)" points="752.51 619.81 521.79 524.11 852.4 473.38" style="opacity:.2"/>
 <polygon transform="matrix(.01209877 0 0 .02048718 2.6870314 -.69811806)" points="521.79 524.11 852.4 473.38 752.51 619.81" style="fill:#ffffff"/>
 <ellipse cx="7.5" cy="8" rx="2.5" ry="1.5" style="opacity:.2"/>
 <ellipse cx="7.5" cy="7.5" rx="2.5" ry="1.5" style="fill:#ffffff"/>
 <g transform="matrix(.51839738 0 0 .58416919 -.69910241 -1.1170528)">
  <path transform="matrix(.02808355 0 0 .04204144 2.8125203 -1.0576208)" d="m1046.891 477.818-206.066-77.243 206.066-85.628z" style="opacity:.25"/>
  <path transform="matrix(.02808355 0 0 .04204144 2.8125203 -1.0576208)" d="m1252.957 392.274-206.066 85.544v-162.871z" style="opacity:.4"/>
 </g>
</svg>

<svg xmlns="http://www.w3.org/2000/svg" width="24" height="24" version="1.1" viewBox="0 0 24 24">
 <path style="opacity:0.2" d="m 12.000462,10.500003 c -0.663295,-1.21e-4 -1.326623,0.147688 -1.817474,0.442197 l -7.447165,4.467541 c -0.9817028,0.589018 -0.9807913,1.591937 9e-4,2.180956 l 7.44625,4.46754 c 0.981703,0.589018 2.653247,0.589017 3.634948,0 l 7.446268,-4.46754 c 0.981701,-0.589017 0.980777,-1.59194 -9.5e-4,-2.180956 L 13.817935,10.9422 c -0.490851,-0.294509 -1.154179,-0.442077 -1.817473,-0.442197 z"/>
 <path style="fill:#af2d2c" d="m 12.000462,10.000003 c -0.663295,-1.204e-4 -1.326623,0.147688 -1.817474,0.442197 l -7.447165,4.467541 c -0.9817028,0.589018 -0.9807913,1.591937 9e-4,2.180956 l 7.44625,4.46754 c 0.981703,0.589018 2.653247,0.589017 3.634948,0 l 7.446268,-4.46754 c 0.981701,-0.589017 0.980777,-1.59194 -9.5e-4,-2.180956 L 13.817935,10.4422 c -0.490851,-0.294509 -1.154179,-0.442076 -1.817473,-0.442197 z"/>
 <path style="opacity:0.2" d="m 12.000462,6.5000039 c -0.663295,-1.205e-4 -1.326623,0.147688 -1.817474,0.4421974 L 2.7358232,11.409742 c -0.9817028,0.589018 -0.9807913,1.591937 9e-4,2.180956 l 7.4462508,4.46754 c 0.981702,0.589017 2.653247,0.589017 3.634948,0 l 7.446268,-4.46754 c 0.9817,-0.589017 0.980776,-1.59194 -9.5e-4,-2.180956 L 13.817935,6.9422013 C 13.327084,6.6476919 12.663757,6.5001244 12.000462,6.5000039 Z"/>
 <path style="fill:#da3837" d="M 12.000462,6.000004 C 11.337167,5.9998835 10.673839,6.147692 10.182988,6.4422014 L 2.7358232,10.909742 c -0.9817028,0.589018 -0.9807913,1.591937 9e-4,2.180956 l 7.4462508,4.46754 c 0.981702,0.589018 2.653247,0.589017 3.634948,0 l 7.446268,-4.46754 c 0.9817,-0.589017 0.980776,-1.59194 -9.5e-4,-2.180956 L 13.817935,6.4422014 C 13.327084,6.147692 12.663757,6.0001245 12.000462,6.000004 Z"/>
 <path style="opacity:0.2" d="M 12.000462,2.500005 C 11.337167,2.4998845 10.673839,2.6476929 10.182988,2.9422024 L 2.735823,7.4097432 c -0.9817028,0.5890178 -0.9807913,1.5919366 9e-4,2.1809555 l 7.44625,4.4675403 c 0.981703,0.589017 2.653247,0.589017 3.634948,0 L 21.264189,9.5906987 C 22.24589,9.0016818 22.244966,7.998759 21.263239,7.4097432 L 13.817935,2.9422024 C 13.327084,2.6476929 12.663756,2.5001255 12.000462,2.500005 Z"/>
 <path style="fill:#e0504d" d="M 12.000462,2.000005 C 11.337167,1.9998845 10.673839,2.147693 10.182988,2.4422024 L 2.735823,6.9097433 c -0.9817028,0.5890179 -0.9807913,1.5919366 9e-4,2.1809555 l 7.44625,4.4675402 c 0.981703,0.589018 2.653247,0.589017 3.634948,0 L 21.264189,9.0906988 C 22.24589,8.5016819 22.244966,7.4987592 21.263239,6.9097433 L 13.817935,2.4422024 C 13.327084,2.147693 12.663756,2.0001255 12.000462,2.000005 Z"/>
 <path style="opacity:0.2;fill:#ffffff" d="M 12,2.000005 C 11.336705,1.9998845 10.673468,2.1478782 10.182617,2.4423877 L 2.7353538,6.9101598 C 2.1411397,7.2666862 1.9136751,7.7737666 2.0390649,8.2500035 2.1204905,7.9394486 2.3478653,7.6426516 2.7353538,7.4101597 L 10.182617,2.9423876 C 10.673468,2.6478781 11.336705,2.4998844 12,2.5000049 c 0.663295,1.205e-4 1.327508,0.1478732 1.818359,0.4423827 l 7.445311,4.4677721 c 0.387498,0.2324909 0.615491,0.5292884 0.697265,0.8398438 C 22.085794,7.7737661 21.857898,7.2666852 21.26367,6.9101598 L 13.818359,2.4423877 C 13.327508,2.1478782 12.663295,2.0001255 12,2.000005 Z"/>
 <polygon style="opacity:0.2" points="759.89 376.17 715.19 301.86 572.44 289.03 678.96 250.62 647 191.66 746.72 230.66 840.74 199.88 815.33 260.85 911.2 296.75 787.57 309.58" transform="matrix(0.01476006,0,0,0.02167915,1.0507096,-0.15500063)"/>
 <polygon style="fill:#ffffff" points="746.72 230.66 840.74 199.88 815.33 260.85 911.2 296.75 787.57 309.58 759.89 376.17 715.19 301.86 572.44 289.03 678.96 250.62 647 191.66" transform="matrix(0.01476006,0,0,0.02167915,1.0507096,-0.65500063)"/>
 <polygon style="opacity:0.2" points="752.51 619.81 521.79 524.11 852.4 473.38" transform="matrix(0.01209877,0,0,0.02048718,2.6870314,-0.19811806)"/>
 <polygon style="fill:#ffffff" points="521.79 524.11 852.4 473.38 752.51 619.81" transform="matrix(0.01209877,0,0,0.02048718,2.6870314,-0.69811806)"/>
 <ellipse style="opacity:0.2" cx="7.5" cy="8" rx="2.5" ry="1.5"/>
 <ellipse style="fill:#ffffff" cx="7.5" cy="7.5" rx="2.5" ry="1.5"/>
 <g transform="matrix(0.51839738,0,0,0.58416919,-0.69910241,-1.1170528)">
  <path style="opacity:0.25" d="M 1046.891,477.818 840.825,400.575 1046.891,314.947 Z" transform="matrix(0.02808355,0,0,0.04204144,2.8125203,-1.0576208)"/>
  <path style="opacity:0.4" d="m 1252.957,392.274 -206.066,85.544 0,-162.871 z" transform="matrix(0.02808355,0,0,0.04204144,2.8125203,-1.0576208)"/>
 </g>
</svg>
